X: 1
T: Josefins Dopvals   [G]
C: Roger Tollroth
R: waltz
S: http://www.nyckelharpa.org/archive/written-music/american-allspel-list/ 2022/9/25
Z: 2022 John Chambers <jc:trillian.mit.edu>
M: 3/4
L: 1/4
Q: 1/4=150
K: G
N: Roger originally wrote this in F, but it's more often played in G.
D |:\
(DG)A | Bdc | (BA)G | D2E | C>CC | (EG)F | E3 | D3 |
(DG)A | Bdc | (BA)G | D2E | C>CC | DFG | A3- |1 (A2D) :|2 ABc |
|:\
(dB)d | g2f | e3 | d3 | (ce)d | (cB)A | B>cB | ABc |
(dB)d | g2f | e3 | d3 | (ce)d | (cB)A | B>cB | ABc |
(BA)G | F2G | G3 | (CD)C | (B,D)G | (FE)F | G3- |1 GBc :|2 G2 |]
